common/src/main/resources/files/plugins/datagrip/trinoFileType.svg

<!--
  - The MIT License (MIT)
  -
  - Copyright (c) 2015-2024 Elior "Mallowigi" Boukhobza
  -
  - Permission is hereby granted, free of charge, to any person obtaining a copy
  - of this software and associated documentation files (the "Software"), to deal
  - in the Software without restriction, including without limitation the rights
  - to use, copy, modify, merge, publish, distribute, sublicense, and/or sell
  - copies of the Software, and to permit persons to whom the Software is
  - furnished to do so, subject to the following conditions:
  -
  - The above copyright notice and this permission notice shall be included in all
  - copies or substantial portions of the Software.
  -
  - THE SOFTWARE IS PROVIDED "AS IS", WITHOUT WARRANTY OF ANY KIND, EXPRESS OR
  - IMPLIED, INCLUDING BUT NOT LIMITED TO THE WARRANTIES OF MERCHANTABILITY,
  - FITNESS FOR A PARTICULAR PURPOSE AND NONINFRINGEMENT. IN NO EVENT SHALL THE
  - AUTHORS OR COPYRIGHT HOLDERS BE LIABLE FOR ANY CLAIM, DAMAGES OR OTHER
  - LIABILITY, WHETHER IN AN ACTION OF CONTRACT, TORT OR OTHERWISE, ARISING FROM,
  - OUT OF OR IN CONNECTION WITH THE SOFTWARE OR THE USE OR OTHER DEALINGS IN THE
  - SOFTWARE.
  -->
<svg data-big="true" width="16px" height="16px" viewBox="0 0 16 16" xmlns="http://www.w3.org/2000/svg">
  <g clip-path="url(#clip0_1228_29960)">
    <path
      d="M6.25524 14.1835C6.49095 14.0272 5.8735 14.0861 5.82226 13.9811C5.57781 13.9607 5.33587 13.917 5.09976 13.8504C4.65652 13.7377 3.60608 13.028 3.49591 12.3619C3.38575 11.6958 3.49591 10.4019 3.96477 9.64355C4.26423 9.17885 4.64941 8.7754 5.09976 8.45476C5.09976 8.45476 4.18511 6.27958 4.10568 4.63731C4.02626 2.99503 4.14411 0.0538018 5.23042 -1.19786e-06C6.31673 -0.0538042 6.12458 2.68503 5.95292 4.46565C5.84278 5.64869 5.8786 8.00649 5.95292 9.19232C7.89376 8.62615 8.85278 9.09988 8.85278 9.09988C8.85278 9.09988 8.88392 7.56769 9.2964 7.65558L8.64605 7.43852C8.8014 6.63383 9.20467 4.96319 10.0368 3.8072C11.1693 2.23411 12.3427 0.614891 13.1113 1.0735C13.8799 1.5321 12.9038 3.17182 12.2248 4.02498C11.5459 4.87814 10.3673 6.15917 9.97534 6.84323C9.71879 7.29865 9.492 7.7702 9.2964 8.25492C9.99573 8.61422 10.568 9.17938 10.9361 9.87414C11.4665 10.9707 11.5177 12.3311 11.2307 12.905C11.0812 13.171 10.8749 13.4008 10.6265 13.5779C10.3781 13.755 10.0936 13.8752 9.79343 13.9299C9.45524 13.9555 8.02306 14.309 8.02306 14.309L6.25524 14.1835Z"
      fill="none"/>
    <path
      d="M8.7558 7.92699C8.7558 7.92699 9.60896 5.698 10.375 4.4426C11.1411 3.18719 12.1685 2.2418 12.4913 2.43395C12.8141 2.6261 11.8303 3.80465 10.9745 4.94988C10.2718 5.96433 9.63513 7.02294 9.06837 8.11914L8.7558 7.92699Z"
      fill="#DD00A1"/>
    <path
      d="M5.3329 8.31129L5.57629 8.11914C5.57629 8.11914 5.54298 5.89015 5.57629 4.53227C5.6096 3.17438 5.68133 1.48086 5.22785 1.4988C4.77437 1.51673 4.45924 2.81825 4.63602 4.67062C4.76673 5.90143 4.99983 7.11921 5.3329 8.31129Z"
      fill="#DD00A1"/>
    <path
      d="M7.56702 14.1195C9.56214 14.1195 11.1795 12.954 11.1795 11.5164C11.1795 10.0788 9.56214 8.91337 7.56702 8.91337C5.5719 8.91337 3.95453 10.0788 3.95453 11.5164C3.95453 12.954 5.5719 14.1195 7.56702 14.1195Z"
      fill="none"/>
    <path
      d="M4.56686 13.0946C4.84137 13.0946 5.0639 12.8721 5.0639 12.5976C5.0639 12.3231 4.84137 12.1006 4.56686 12.1006C4.29236 12.1006 4.06982 12.3231 4.06982 12.5976C4.06982 12.8721 4.29236 13.0946 4.56686 13.0946Z"
      fill="#DD00A1"/>
    <path
      d="M10.4392 13.0946C10.7137 13.0946 10.9362 12.8721 10.9362 12.5976C10.9362 12.3231 10.7137 12.1006 10.4392 12.1006C10.1647 12.1006 9.94214 12.3231 9.94214 12.5976C9.94214 12.8721 10.1647 13.0946 10.4392 13.0946Z"
      fill="#DD00A1"/>
    <path
      d="M8.32796 12.554C8.31909 12.5463 8.30771 12.542 8.29593 12.542C8.28415 12.542 8.27277 12.5463 8.2639 12.554C8.2639 12.554 8.11787 12.8102 7.90265 12.8256C7.82982 12.8232 7.75822 12.806 7.69218 12.7752C7.62614 12.7444 7.56701 12.7005 7.51835 12.6463V12.2978C7.6567 12.2235 7.8796 11.993 7.8796 11.9135C7.86062 11.8281 7.81108 11.7526 7.7403 11.7012C7.66952 11.6497 7.58238 11.6259 7.49529 11.6343C7.23908 11.6343 7.05974 11.8008 7.05974 11.9392C7.05974 12.0775 7.34157 12.2543 7.42099 12.3081V12.6796C7.38165 12.7317 7.33153 12.7747 7.27405 12.8056C7.21657 12.8366 7.15308 12.8548 7.08792 12.8589C6.88296 12.8589 6.72924 12.5822 6.72924 12.5797C6.72325 12.5687 6.71325 12.5604 6.70132 12.5566C6.68939 12.5528 6.67645 12.5537 6.66518 12.5592C6.65501 12.5646 6.64725 12.5737 6.64346 12.5846C6.63966 12.5956 6.6401 12.6075 6.64469 12.6181C6.64469 12.6335 6.82659 12.9486 7.08792 12.9486C7.16126 12.9461 7.23328 12.9284 7.29943 12.8967C7.36558 12.8649 7.42442 12.8198 7.47223 12.7641C7.58051 12.8743 7.72548 12.9408 7.8796 12.9512H7.91546C8.00767 12.9336 8.09482 12.8958 8.17059 12.8404C8.24637 12.785 8.30887 12.7134 8.35358 12.6309C8.36187 12.6223 8.36651 12.6108 8.36651 12.5989C8.36651 12.5869 8.36187 12.5754 8.35358 12.5669C8.34616 12.5606 8.33738 12.5562 8.32796 12.554Z"
      fill="#DD00A1"/>
    <path
      d="M5.57889 10.9784C5.50186 10.9784 5.42657 11.0012 5.36253 11.044C5.29849 11.0868 5.24857 11.1476 5.2191 11.2188C5.18962 11.2899 5.18191 11.3682 5.19694 11.4438C5.21196 11.5193 5.24905 11.5887 5.30352 11.6432C5.35798 11.6976 5.42737 11.7347 5.50291 11.7498C5.57845 11.7648 5.65675 11.7571 5.72791 11.7276C5.79907 11.6981 5.85989 11.6482 5.90269 11.5842C5.94548 11.5201 5.96832 11.4448 5.96832 11.3678C5.96833 11.2654 5.928 11.1671 5.85607 11.0942C5.78414 11.0214 5.6864 10.9797 5.58401 10.9784H5.57889ZM5.68137 11.3396C5.66008 11.3396 5.63928 11.3333 5.62158 11.3215C5.60389 11.3097 5.5901 11.2929 5.58195 11.2732C5.57381 11.2535 5.57168 11.2319 5.57583 11.211C5.57998 11.1902 5.59023 11.171 5.60528 11.1559C5.62033 11.1409 5.6395 11.1306 5.66037 11.1265C5.68125 11.1223 5.70288 11.1245 5.72255 11.1326C5.74221 11.1408 5.75901 11.1545 5.77084 11.1722C5.78266 11.1899 5.78897 11.2107 5.78897 11.232C5.78931 11.2462 5.78687 11.2602 5.78177 11.2734C5.77668 11.2866 5.76903 11.2986 5.75928 11.3089C5.74952 11.3191 5.73785 11.3273 5.72492 11.333C5.71199 11.3387 5.69806 11.3419 5.68393 11.3422L5.68137 11.3396Z"
      fill="#DD00A1"/>
    <path
      d="M9.40901 10.9784C9.33199 10.9779 9.25655 11.0002 9.19223 11.0426C9.12791 11.085 9.0776 11.1455 9.04766 11.2164C9.01772 11.2874 9.00949 11.3656 9.02402 11.4413C9.03855 11.5169 9.07518 11.5865 9.12929 11.6414C9.18339 11.6962 9.25253 11.7337 9.32797 11.7492C9.40341 11.7648 9.48176 11.7576 9.55312 11.7286C9.62447 11.6996 9.68562 11.6501 9.72883 11.5863C9.77204 11.5225 9.79538 11.4474 9.79588 11.3704C9.79622 11.3192 9.78648 11.2685 9.76722 11.2212C9.74796 11.1738 9.71956 11.1307 9.68364 11.0943C9.64771 11.0579 9.60497 11.0289 9.55785 11.009C9.51073 10.9891 9.46016 10.9787 9.40901 10.9784ZM9.52431 11.3396C9.51017 11.34 9.49611 11.3375 9.48293 11.3324C9.46974 11.3273 9.45769 11.3197 9.44746 11.3099C9.43723 11.3002 9.42902 11.2885 9.4233 11.2756C9.41758 11.2627 9.41447 11.2487 9.41414 11.2346C9.41411 11.2062 9.42501 11.179 9.44457 11.1584C9.46414 11.1379 9.49086 11.1257 9.51918 11.1244C9.53331 11.1241 9.54738 11.1265 9.56056 11.1316C9.57375 11.1367 9.5858 11.1444 9.59603 11.1541C9.60626 11.1639 9.61447 11.1755 9.62019 11.1885C9.6259 11.2014 9.62902 11.2153 9.62935 11.2295C9.62969 11.2433 9.62731 11.257 9.62234 11.2699C9.61738 11.2827 9.60992 11.2945 9.60041 11.3045C9.59089 11.3145 9.5795 11.3225 9.56688 11.3281C9.55426 11.3337 9.54066 11.3367 9.52687 11.3371L9.52431 11.3396Z"
      fill="#DD00A1"/>
    <path fill-rule="evenodd" clip-rule="evenodd" fill="#DD00A1"
          d="M11.9405 8.34717V10.0689C12.0775 10.1056 12.1991 10.1855 12.2872 10.2967C12.3753 10.4079 12.4253 10.5445 12.4298 10.6863V12.0006C12.4205 12.1865 12.3379 12.361 12.2 12.4859C12.0621 12.6108 11.8803 12.6758 11.6945 12.6668H11.4383C11.2416 13.1687 10.9259 13.6153 10.5185 13.9683L10.8516 14.2732C10.8922 14.3079 10.9175 14.3573 10.9218 14.4106C10.9261 14.4639 10.9092 14.5167 10.8747 14.5576C10.124 15.4799 8.8942 15.9923 7.50813 15.9923C6.12207 15.9923 4.89484 15.462 4.14416 14.5576C4.12716 14.5376 4.11427 14.5144 4.10622 14.4894C4.09818 14.4644 4.09514 14.4381 4.09728 14.4119C4.09942 14.3857 4.1067 14.3602 4.1187 14.3369C4.1307 14.3135 4.14719 14.2927 4.16722 14.2757L4.49773 13.976C4.08931 13.6208 3.77361 13.1714 3.57795 12.6668H3.3448C3.15915 12.6759 2.97743 12.6112 2.83923 12.4869C2.70102 12.3626 2.61753 12.1888 2.60693 12.0032V10.6863C2.61882 10.5014 2.70279 10.3286 2.84077 10.205C2.97876 10.0814 3.15974 10.0169 3.3448 10.0253H3.51646C4.01862 8.237 5.54048 7.13531 7.51838 7.13531C9.49629 7.13531 11.0105 8.24724 11.5229 10.0253H11.5741V8.34717C11.439 8.31663 11.3176 8.24279 11.2283 8.13688C11.139 8.03096 11.0868 7.89878 11.0796 7.76046C11.0974 7.59383 11.1762 7.43967 11.3009 7.32765C11.4255 7.21562 11.5872 7.15365 11.7547 7.15365C11.9223 7.15365 12.084 7.21562 12.2086 7.32765C12.3332 7.43967 12.412 7.59383 12.4298 7.76046C12.4238 7.89834 12.3726 8.03042 12.2842 8.13641C12.1958 8.2424 12.075 8.31644 11.9405 8.34717ZM10.8337 11.7265C10.8337 10.2482 9.34769 9.04404 7.51838 9.04404V9.03123C5.68139 9.03123 4.20309 10.2482 4.20309 11.7137C4.20309 13.3227 5.87099 14.0324 7.51838 14.0324C9.16578 14.0324 10.8337 13.3278 10.8337 11.7265ZM7.51838 8.8109C7.10313 8.81323 6.69018 8.87271 6.29116 8.98768V7.64773C6.6905 7.53569 7.10363 7.48049 7.51838 7.48375C7.93397 7.48049 8.34795 7.53568 8.74816 7.64773V8.99536C8.35008 8.87134 7.93533 8.80913 7.51838 8.8109ZM12.0634 11.5702H11.5741V11.314C11.5741 10.9878 11.5406 10.6624 11.4742 10.343H11.6843C11.7756 10.3367 11.8658 10.3668 11.9349 10.4269C12.0041 10.4869 12.0466 10.5719 12.0532 10.6633L12.0634 11.5702ZM11.4383 12.344H11.6945V12.3414H11.7099C11.755 12.3421 11.7998 12.3339 11.8417 12.3172C11.8836 12.3006 11.9218 12.2759 11.9542 12.2445C11.9865 12.2131 12.0124 12.1756 12.0302 12.1342C12.0481 12.0928 12.0577 12.0483 12.0583 12.0032V11.7854H11.5459C11.5229 11.9739 11.487 12.1605 11.4383 12.344ZM7.51837 15.6541C6.29115 15.6541 5.19716 15.2135 4.51053 14.4295L4.84359 14.1195C5.63095 14.645 6.56185 14.9135 7.50813 14.8881C8.45471 14.9159 9.38631 14.6471 10.1727 14.1195L10.5185 14.4295C9.83959 15.2135 8.75584 15.6541 7.51837 15.6541ZM3.46521 11.3268C3.46562 11.0007 3.49823 10.6755 3.56257 10.3558H3.30636C3.22051 10.3578 3.13894 10.3937 3.07943 10.4556C3.01992 10.5175 2.98729 10.6005 2.98867 10.6863V11.583H3.46521C3.46009 11.4977 3.46009 11.4122 3.46521 11.3268ZM3.48827 11.7854C3.51338 11.972 3.55017 12.1569 3.59844 12.3388H3.34223C3.25087 12.3452 3.16071 12.315 3.09155 12.255C3.02239 12.195 2.97986 12.1099 2.9733 12.0186V11.7854H3.48827ZM12.0634 7.76046C12.0634 7.91327 11.9258 8.03716 11.756 8.03716C11.5862 8.03716 11.4486 7.91327 11.4486 7.76046C11.4486 7.60764 11.5862 7.48375 11.756 7.48375C11.9258 7.48375 12.0634 7.60764 12.0634 7.76046Z"
    />
  </g>
  <defs>
    <clipPath id="clip0_1228_29960">
      <rect width="16" height="16" fill="white"/>
    </clipPath>
  </defs>
</svg>

<svg xmlns="http://www.w3.org/2000/svg" width="16" height="16" data-big="true"><g clip-path="url(#a)"><path fill="none" d="M6.255 14.184c.236-.157-.381-.098-.433-.203a4 4 0 0 1-.722-.13c-.443-.113-1.494-.823-1.604-1.49-.11-.665 0-1.96.469-2.717.3-.465.684-.869 1.135-1.19 0 0-.915-2.174-.994-3.817C4.026 2.995 4.144.054 5.23 0s.895 2.685.723 4.466c-.11 1.183-.074 3.54 0 4.726 1.94-.566 2.9-.092 2.9-.092s.03-1.532.443-1.444l-.65-.217c.155-.805.559-2.476 1.39-3.632 1.133-1.573 2.307-3.192 3.075-2.733.769.458-.207 2.098-.886 2.951-.68.853-1.858 2.134-2.25 2.818q-.385.684-.679 1.412c.7.36 1.272.924 1.64 1.62.53 1.096.582 2.456.295 3.03a2.08 2.08 0 0 1-1.438 1.025c-.338.026-1.77.379-1.77.379z"/><path fill="#DD00A1" d="M8.756 7.927s.853-2.229 1.619-3.484c.766-1.256 1.793-2.201 2.116-2.009s-.66 1.37-1.516 2.516a29 29 0 0 0-1.907 3.17zM5.333 8.311l.243-.192s-.033-2.229 0-3.587c.034-1.358.105-3.051-.348-3.033-.454.018-.769 1.32-.592 3.172.13 1.23.364 2.448.697 3.64"/><path fill="none" d="M7.567 14.12c1.995 0 3.613-1.166 3.613-2.604 0-1.437-1.618-2.603-3.613-2.603s-3.612 1.166-3.612 2.603 1.617 2.604 3.612 2.604"/><path fill="#DD00A1" d="M4.567 13.095a.497.497 0 1 0 0-.994.497.497 0 0 0 0 .994M10.44 13.095a.497.497 0 1 0 0-.994.497.497 0 0 0 0 .994M8.328 12.554a.05.05 0 0 0-.064 0s-.146.256-.361.272a.54.54 0 0 1-.385-.18v-.348c.139-.075.362-.305.362-.384a.36.36 0 0 0-.385-.28c-.256 0-.435.167-.435.305 0 .139.282.315.361.37v.37a.45.45 0 0 1-.333.18c-.205 0-.359-.277-.359-.28a.05.05 0 0 0-.064-.02.046.046 0 0 0-.02.06c0 .014.182.33.443.33a.53.53 0 0 0 .384-.185.63.63 0 0 0 .408.187h.035a.63.63 0 0 0 .439-.32.046.046 0 0 0 0-.064.1.1 0 0 0-.026-.013M5.579 10.978a.39.39 0 1 0 .005 0zm.102.362a.108.108 0 1 1 .108-.108.107.107 0 0 1-.105.11zM9.409 10.978a.39.39 0 1 0-.005.779.39.39 0 0 0 .005-.779m.115.362a.1.1 0 0 1-.077-.03.1.1 0 0 1-.033-.075.11.11 0 0 1 .105-.11.11.11 0 0 1 .101.063.1.1 0 0 1 .002.082.11.11 0 0 1-.095.067z"/><path fill="#DD00A1" fill-rule="evenodd" d="M11.94 8.347v1.722a.66.66 0 0 1 .49.617v1.315a.7.7 0 0 1-.735.666h-.257a3.3 3.3 0 0 1-.92 1.301l.334.305a.2.2 0 0 1 .023.285c-.751.922-1.98 1.434-3.367 1.434-1.386 0-2.613-.53-3.364-1.434a.2.2 0 0 1 .023-.282l.33-.3a3.3 3.3 0 0 1-.919-1.31h-.233a.704.704 0 0 1-.738-.663v-1.317a.707.707 0 0 1 .738-.66h.171c.503-1.789 2.024-2.89 4.002-2.89s3.493 1.111 4.005 2.89h.051V8.346a.636.636 0 0 1-.494-.587.679.679 0 0 1 1.35 0 .63.63 0 0 1-.49.587m-1.106 3.38c0-1.479-1.486-2.683-3.316-2.683v-.013c-1.837 0-3.315 1.217-3.315 2.683 0 1.609 1.668 2.318 3.315 2.318s3.316-.704 3.316-2.306M7.518 8.81a4.5 4.5 0 0 0-1.227.177v-1.34c.4-.112.813-.168 1.227-.164.416-.004.83.052 1.23.164v1.347a4 4 0 0 0-1.23-.184m4.545 2.76h-.489v-.257a4.8 4.8 0 0 0-.1-.971h.21a.346.346 0 0 1 .37.32zm-.625.773h.256v-.003h.016a.34.34 0 0 0 .348-.338v-.218h-.512a4 4 0 0 1-.108.559m-3.92 3.31c-1.227 0-2.32-.44-3.007-1.224l.333-.31a4.58 4.58 0 0 0 2.664.768 4.54 4.54 0 0 0 2.665-.768l.345.31c-.678.784-1.762 1.224-3 1.224m-4.053-4.327q0-.49.098-.971h-.257a.325.325 0 0 0-.317.33v.897h.476a2 2 0 0 1 0-.256m.023.458q.038.28.11.554h-.256a.346.346 0 0 1-.369-.32v-.234zm8.575-4.025c0 .153-.137.277-.307.277s-.307-.124-.307-.277c0-.152.137-.276.307-.276s.307.124.307.276" clip-rule="evenodd"/></g><defs><clipPath id="a"><path fill="#fff" d="M0 0h16v16H0z"/></clipPath></defs></svg>
